src/assets/images/connectors/tally.svg

<svg width="300" height="300" viewBox="0 0 300 300" fill="none" xmlns="http://www.w3.org/2000/svg">
<circle cx="150" cy="150" r="150" fill="#D08E39"/>
<path fill-rule="evenodd" clip-rule="evenodd" d="M241.377 139.857C243.536 141.62 244.989 144.099 245.473 146.844C245.59 147.663 245.58 148.496 245.443 149.313C245.406 149.889 245.335 150.462 245.232 151.029C245.066 152.149 244.825 153.255 244.509 154.342C243.832 156.572 242.816 158.685 241.498 160.606C241.248 160.968 240.931 161.382 240.712 161.667C240.64 161.761 240.579 161.841 240.534 161.901V162.051C240.538 162.077 240.542 162.107 240.546 162.142C240.58 162.385 240.643 162.837 240.775 163.497C241.138 165.685 241.249 167.908 241.106 170.122C240.818 174.429 239.8 178.655 238.095 182.62C236.418 186.749 233.774 190.416 230.385 193.31L229.994 193.672L229.452 193.852C225.246 195.431 220.928 196.689 216.533 197.617C212.031 198.645 207.416 199.091 202.8 198.942H202.409H202.017C192.44 195.859 182.554 193.84 172.535 192.919C169.811 192.717 167.104 192.325 164.434 191.744C161.817 191.079 159.242 190.255 156.725 189.275C152.705 187.812 148.59 186.624 144.408 185.721C142.442 188.461 141.532 191.82 141.848 195.177C142.479 199.975 144.001 204.612 146.335 208.85C149.27 213.457 151.683 218.376 153.533 223.515C155.31 229.024 155.764 234.874 154.858 240.59L154.045 245.8L149.648 242.789C149.119 242.336 148.127 241.735 147.182 241.163C146.997 241.051 146.814 240.94 146.636 240.831L143.625 239.175C144.695 243.117 145.4 247.15 145.733 251.221C145.934 254.744 145.864 258.278 145.522 261.791C145.251 265.286 144.48 268.724 143.233 272C130.749 253.03 120.56 247.596 111.635 242.836C105.641 239.639 100.216 236.746 95.05 230.261C87.4008 219.39 85.4736 206.892 96.1342 183.252C99.0857 175.947 100.907 167.935 102.396 161.383C103.658 155.835 104.681 151.333 105.951 149.192V149.373C105.086 154.355 105.086 159.449 105.951 164.43C106.332 166.775 107.204 169.012 108.511 170.995C109.887 172.794 111.731 174.18 113.842 175.001C118.39 176.752 123.188 177.769 128.056 178.012C130.525 178.404 133.025 178.404 135.584 178.404C136.911 178.382 138.238 178.433 139.56 178.554C140.915 178.675 142.24 178.855 143.565 179.036C148.82 179.887 153.997 181.166 159.044 182.861C163.598 184.606 168.413 185.573 173.288 185.721C183.645 186.548 193.871 188.569 203.764 191.744C207.67 191.869 211.578 191.566 215.418 190.841C216.804 190.6 218.189 190.269 219.574 189.938C226.38 187.95 234.029 176.386 225.175 177.35C222.717 177.465 220.27 177.767 217.858 178.253C216.476 178.58 215.108 179.098 213.658 179.647C212.169 180.21 210.593 180.807 208.823 181.265C205.481 182.024 202.002 181.93 198.705 180.994C195.822 179.824 192.773 179.112 189.67 178.885C191.122 178.064 192.736 177.571 194.398 177.44C195.616 177.318 196.696 177.36 197.732 177.401C198.234 177.421 198.725 177.44 199.217 177.44C202.026 177.826 204.882 177.704 207.649 177.079C209.07 176.677 210.509 175.905 212.055 175.075C213.294 174.411 214.601 173.71 216.021 173.134C219.163 171.82 222.523 171.105 225.928 171.026H225.868C227.1 170.919 228.34 170.919 229.572 171.026C230.713 169.757 231.571 168.261 232.09 166.636C232.61 165.011 232.778 163.294 232.584 161.6C231.721 160.293 230.417 159.342 228.91 158.919C228.305 158.786 227.535 158.636 226.654 158.466C222.184 157.599 214.868 156.181 211.925 153.439C209.907 151.481 208.823 145.609 215.93 143.983C219.699 143.329 223.541 143.207 227.344 143.621L227.489 143.635C229.194 143.797 233.426 144.198 234.421 143.35C233.939 143.029 233.51 142.708 233.082 142.386C232.868 142.226 232.654 142.065 232.433 141.905L223.098 134.798C222.454 134.345 221.829 133.887 221.216 133.438C220.279 132.752 219.37 132.085 218.46 131.485C218.152 131.264 217.83 131.063 217.496 130.883C217.168 130.704 216.825 130.553 216.472 130.431C215.443 130.037 214.438 129.585 213.461 129.076C209.819 127.2 206.504 124.749 203.643 121.818C195.002 112.991 187.742 102.909 182.112 91.9143C179.813 87.4495 175.971 83.9715 171.3 82.1271C173.726 81.9812 176.155 82.3334 178.439 83.1621C180.723 83.9907 182.813 85.2783 184.581 86.9454C185.184 87.4456 185.953 88.8206 186.938 90.5821C189.689 95.5025 194.126 103.439 201.355 103.749C202.601 103.649 203.828 103.375 204.999 102.936C201.41 99.5388 198.98 95.4475 196.706 91.6175C193.256 85.8064 190.162 80.597 183.918 79.3264C182.352 78.7543 180.967 78.1821 179.341 77.369L175.125 75.2911L166.693 71.1654C161.118 68.4991 155.386 66.176 149.527 64.2089C143.726 62.3015 137.741 61.0095 131.669 60.3542C130.231 60.1642 128.783 60.0535 127.333 60.0229C126.163 60.0194 125.009 60.2875 123.96 60.8059C123.35 61.0674 122.663 61.434 121.956 61.811C121.197 62.2156 120.416 62.6323 119.684 62.9441C118.268 63.5463 116.883 64.1788 115.498 64.8714C110.01 67.5304 104.829 70.7821 100.049 74.5684C96.4586 77.1021 93.3052 80.2044 90.7134 83.7533C95.2321 83.4475 99.7667 84.0411 104.054 85.4999C98.6259 85.3998 93.2167 86.1725 88.0334 87.7886C85.4913 88.5223 83.0054 89.4381 80.595 90.5291C78.1856 91.5624 75.8598 92.7806 73.6385 94.1729C71.4495 95.4323 69.4262 96.9599 67.6156 98.7203C66.8844 99.4609 66.3107 100.342 65.9291 101.31C65.4178 102.453 64.9666 103.686 64.5153 104.92L64.5138 104.924C62.7634 109.981 61.3647 115.153 60.3279 120.403C58.1656 130.887 57.356 141.605 57.9187 152.294C58.3674 160.915 60.6138 169.347 64.5138 177.049C68.2179 172.17 71.8316 167.201 75.3249 162.202C79.8298 155.723 84.0012 149.019 87.8226 142.115C89.807 138.556 91.569 134.832 93.3498 131.068C94.9742 127.635 96.6142 124.169 98.4529 120.764C100.299 117.094 102.487 113.605 104.988 110.344C106.257 108.668 107.735 107.161 109.385 105.857C111.02 104.496 113.043 103.684 115.167 103.539C108.421 109.592 103.181 125.854 97.941 144.073C93.725 158.859 79.3905 192.558 70.3561 193.401C66.8628 193.581 65.5679 191.925 63.1888 188.492L61.2011 185.782C57.7327 180.949 55.0872 175.577 53.3714 169.881C51.7471 164.306 50.7373 158.57 50.3599 152.776C50.0829 147.082 50.2137 141.376 50.7514 135.701C51.4198 130.075 52.4254 124.493 53.7629 118.987C55.0175 113.459 56.6577 108.025 58.6716 102.725C59.2137 101.37 59.7556 100.045 60.4181 98.6901C60.7818 97.9412 61.1944 97.2168 61.6529 96.5219C62.1785 95.811 62.752 95.137 63.3695 94.5042C65.5568 92.4249 68.0314 90.6704 70.7175 89.2944C74.6718 87.2266 78.885 85.6972 83.2451 84.747C84.6096 81.6745 86.483 78.8543 88.7862 76.4053C91.0908 74.006 93.5887 71.8002 96.2546 69.8102C101.367 65.7735 106.9 62.3003 112.757 59.4507C113.686 58.9865 114.817 58.4818 115.816 58.0361C116.307 57.8169 116.767 57.6119 117.154 57.4331C117.674 57.1933 118.229 56.9063 118.83 56.5956C119.587 56.2041 120.417 55.7749 121.34 55.3552C123.148 54.4935 125.12 54.0313 127.122 54C128.696 54 129.855 54.1209 131.045 54.245C131.426 54.2848 131.81 54.3248 132.212 54.3614C138.682 55.0693 145.061 56.4521 151.244 58.4871C157.342 60.5331 163.306 62.957 169.102 65.7447L177.685 69.9005L181.931 72.0086C182.968 72.569 184.291 73.0773 185.732 73.6304C185.839 73.6718 185.948 73.7133 186.057 73.7552C187.622 74.3575 189.038 74.9598 190.634 75.7729C191.481 76.2069 192.296 76.7 193.073 77.2485C193.814 77.8479 194.518 78.4916 195.181 79.1759C197.501 81.6732 199.522 84.4322 201.204 87.3971C201.421 87.774 201.637 88.1497 201.851 88.5236C204.789 93.6485 207.538 98.4432 211.805 101.25L214.816 103.237C214.77 103.403 214.709 103.564 214.635 103.719L214.003 104.864L210.991 106.399C210.694 106.532 210.426 106.723 210.204 106.961C209.981 107.199 209.809 107.479 209.696 107.785C209.585 108.073 209.523 108.379 209.516 108.688V110.616C209.531 111.633 209.399 112.647 209.124 113.627C208.999 114.015 208.848 114.361 208.714 114.668C208.526 115.1 208.371 115.453 208.371 115.735C208.276 116.049 208.276 116.385 208.371 116.699C210.764 119.129 213.529 121.162 216.563 122.722L218.972 123.836C219.539 124.04 220.093 124.281 220.628 124.559L222.164 125.492C223.511 126.347 224.615 127.187 225.713 128.023C226.162 128.364 226.61 128.705 227.073 129.046L236.438 136.183L238.667 137.839C239.611 138.455 240.516 139.129 241.377 139.857ZM167.384 112.061C167.685 115.795 163.228 118.716 157.778 119.319C150.911 120.011 147.237 116.036 148.201 111.429C150.008 103.719 146.033 106.339 143.383 109.351C143.339 109.426 143.269 109.483 143.187 109.511C143.104 109.539 143.014 109.536 142.934 109.503C142.853 109.47 142.787 109.409 142.748 109.331C142.708 109.254 142.699 109.164 142.72 109.08C143.834 101.129 148.502 100.798 150.58 100.798C156.873 101.231 163.108 102.291 169.191 103.96C169.359 103.997 169.513 104.081 169.635 104.202C169.757 104.323 169.841 104.476 169.879 104.643C169.917 104.811 169.907 104.986 169.849 105.147C169.791 105.309 169.688 105.451 169.552 105.556C168.645 106.35 167.966 107.371 167.585 108.514C167.204 109.658 167.134 110.882 167.384 112.061Z" fill="#002522"/>
</svg>

<svg xmlns="http://www.w3.org/2000/svg" width="300" height="300" fill="none"><circle cx="150" cy="150" r="150" fill="#D08E39"/><path fill="#002522" fill-rule="evenodd" d="M241.377 139.857a11.63 11.63 0 0 1 4.096 6.987 8 8 0 0 1-.03 2.469 15 15 0 0 1-.211 1.716 25 25 0 0 1-.723 3.313 22.8 22.8 0 0 1-3.011 6.264c-.25.362-.567.776-.786 1.061l-.178.234v.15l.012.091c.034.243.097.695.229 1.355.363 2.188.474 4.411.331 6.625a38 38 0 0 1-3.011 12.498 27.8 27.8 0 0 1-7.71 10.69l-.391.362-.542.18a89 89 0 0 1-12.919 3.765 54 54 0 0 1-13.733 1.325h-.783a137.2 137.2 0 0 0-29.482-6.023 58.4 58.4 0 0 1-8.101-1.175 66 66 0 0 1-7.709-2.469 94 94 0 0 0-12.317-3.554 13.98 13.98 0 0 0-2.56 9.456 38.8 38.8 0 0 0 4.487 13.673 74 74 0 0 1 7.198 14.665 36.84 36.84 0 0 1 1.325 17.075l-.813 5.21-4.397-3.011c-.529-.453-1.521-1.054-2.466-1.626l-.546-.332-3.011-1.656a67 67 0 0 1 2.108 12.046 69 69 0 0 1-.211 10.57A36.7 36.7 0 0 1 143.233 272c-12.484-18.97-22.673-24.404-31.598-29.164-5.994-3.197-11.419-6.09-16.585-12.575-7.65-10.871-9.576-23.369 1.084-47.009 2.952-7.305 4.773-15.317 6.262-21.869 1.262-5.548 2.285-10.05 3.555-12.191v.181a44 44 0 0 0 0 15.057 16.8 16.8 0 0 0 2.56 6.565 12.35 12.35 0 0 0 5.331 4.006 46 46 0 0 0 14.214 3.011c2.469.392 4.969.392 7.528.392a37 37 0 0 1 3.976.15c1.355.121 2.68.301 4.005.482a97.7 97.7 0 0 1 15.479 3.825 43.5 43.5 0 0 0 14.244 2.86 135 135 0 0 1 30.476 6.023 53.6 53.6 0 0 0 11.654-.903c1.386-.241 2.771-.572 4.156-.903 6.806-1.988 14.455-13.552 5.601-12.588a48.5 48.5 0 0 0-7.317.903c-1.382.327-2.75.845-4.2 1.394-1.489.563-3.065 1.16-4.835 1.618a20.46 20.46 0 0 1-10.118-.271 29.8 29.8 0 0 0-9.035-2.109 11.4 11.4 0 0 1 4.728-1.445c1.218-.122 2.298-.08 3.334-.039.502.02.993.039 1.485.039 2.809.386 5.665.264 8.432-.361 1.421-.402 2.86-1.174 4.406-2.004 1.239-.664 2.546-1.365 3.966-1.941a27.3 27.3 0 0 1 9.907-2.108h-.06a21.4 21.4 0 0 1 3.704 0 12.05 12.05 0 0 0 3.012-9.426 6.5 6.5 0 0 0-3.674-2.681 97 97 0 0 0-2.256-.453c-4.47-.867-11.786-2.285-14.729-5.027-2.018-1.958-3.102-7.83 4.005-9.456a40.9 40.9 0 0 1 11.414-.362l.145.014c1.705.162 5.937.563 6.932-.285a28 28 0 0 1-1.339-.964q-.32-.24-.649-.481l-9.335-7.107c-.644-.453-1.269-.911-1.882-1.36-.937-.686-1.846-1.353-2.756-1.953a9 9 0 0 0-.964-.602 7 7 0 0 0-1.024-.452 29 29 0 0 1-3.011-1.355 38.1 38.1 0 0 1-9.818-7.258 122.7 122.7 0 0 1-21.531-29.904 20.72 20.72 0 0 0-10.812-9.787 17.8 17.8 0 0 1 13.281 4.818c.603.5 1.372 1.876 2.357 3.637 2.751 4.92 7.188 12.857 14.417 13.167 1.246-.1 2.473-.374 3.644-.813-3.589-3.397-6.019-7.489-8.293-11.318-3.45-5.812-6.544-11.021-12.788-12.292a42 42 0 0 1-4.577-1.957l-4.216-2.078-8.432-4.126a152 152 0 0 0-17.166-6.956 87 87 0 0 0-17.858-3.855c-1.438-.19-2.886-.3-4.336-.331a7.56 7.56 0 0 0-3.373.783c-.61.261-1.297.628-2.004 1.005-.759.405-1.54.821-2.272 1.133a75 75 0 0 0-4.186 1.927 83.6 83.6 0 0 0-15.449 9.697 40.4 40.4 0 0 0-9.336 9.185 34.2 34.2 0 0 1 13.341 1.747 50.7 50.7 0 0 0-16.02 2.289 55 55 0 0 0-7.439 2.74 51 51 0 0 0-6.957 3.644 30.4 30.4 0 0 0-6.022 4.547 7.7 7.7 0 0 0-1.687 2.59c-.511 1.143-.962 2.376-1.414 3.61l-.001.004a116 116 0 0 0-4.186 15.479 125.3 125.3 0 0 0-2.41 31.891 61.9 61.9 0 0 0 6.596 24.755 467 467 0 0 0 10.81-14.847 232 232 0 0 0 12.499-20.087c1.984-3.559 3.746-7.283 5.527-11.047 1.624-3.433 3.264-6.899 5.103-10.304a65.5 65.5 0 0 1 6.535-10.42 24.8 24.8 0 0 1 4.397-4.487 10.1 10.1 0 0 1 5.782-2.318c-6.746 6.053-11.986 22.315-17.226 40.534-4.216 14.786-18.55 48.485-27.585 49.328-3.493.18-4.788-1.476-7.167-4.909l-1.988-2.71a54 54 0 0 1-7.83-15.901 79.7 79.7 0 0 1-3.011-17.105c-.277-5.694-.146-11.4.391-17.075a142 142 0 0 1 3.012-16.714 121.5 121.5 0 0 1 4.909-16.262c.542-1.355 1.084-2.68 1.746-4.035q.546-1.124 1.235-2.168.79-1.067 1.717-2.018a31.5 31.5 0 0 1 7.348-5.21 50 50 0 0 1 12.527-4.547 29.9 29.9 0 0 1 5.541-8.342 61 61 0 0 1 7.469-6.595 90.6 90.6 0 0 1 16.502-10.36c.929-.464 2.06-.968 3.059-1.414.491-.22.951-.424 1.338-.603.52-.24 1.075-.527 1.676-.837.757-.392 1.587-.821 2.51-1.24A13.95 13.95 0 0 1 127.122 54c1.574 0 2.733.12 3.923.245.381.04.765.08 1.167.116a93.4 93.4 0 0 1 19.032 4.126 155 155 0 0 1 17.858 7.258l8.583 4.155 4.246 2.109c1.037.56 2.36 1.068 3.801 1.621l.325.125a46 46 0 0 1 4.577 2.018 20 20 0 0 1 2.439 1.476 24 24 0 0 1 2.108 1.927 44 44 0 0 1 6.023 8.221l.647 1.127c2.938 5.124 5.687 9.92 9.954 12.726l3.011 1.987a3 3 0 0 1-.181.482l-.632 1.145-3.012 1.535a2.44 2.44 0 0 0-1.295 1.386 2.7 2.7 0 0 0-.18.903v1.928a10.6 10.6 0 0 1-.392 3.011c-.125.388-.276.734-.41 1.041-.188.432-.343.785-.343 1.067-.095.314-.095.65 0 .964a32.1 32.1 0 0 0 8.192 6.023l2.409 1.114q.852.306 1.656.723l1.536.933c1.347.855 2.451 1.695 3.549 2.531.449.341.897.682 1.36 1.023l9.365 7.137 2.229 1.656q1.417.925 2.71 2.018m-73.993-27.796c.301 3.734-4.156 6.655-9.606 7.258-6.867.692-10.541-3.283-9.577-7.89 1.807-7.71-2.168-5.09-4.818-2.078a.364.364 0 0 1-.449.152.36.36 0 0 1-.214-.423c1.114-7.951 5.782-8.282 7.86-8.282a95 95 0 0 1 18.611 3.162.91.91 0 0 1 .688.683.9.9 0 0 1-.327.913 6.78 6.78 0 0 0-2.168 6.505" clip-rule="evenodd"/></svg>
